X:1
T:Title
%%score { ( 1 4 ) | ( 2 3 ) }
L:1/8
M:6/8
K:F
V:1 treble nm="Grand Piano"
V:4 treble 
V:2 treble 
V:3 treble 
V:1
 z3 z2[Q:1/4=87] c | c2 c d2 d | cAF c2 c | f2 f e2 d |[M:5/8] c- c3 z |[M:1/8] c | %6
[M:3/4] c2 c d2 c | dc A F2 E | D2 D E2 F |[M:5/8] G3 c z |[M:1/8] [Ec] |[M:3/4] c2 c d2 d | %12
 cA F c2 [Ac] | ^c2 c =B2 c |[M:5/8] [Fd]- [Fd]3 z |[M:1/8] [Fd] |[M:3/4] f2 f e2 [Fd] | %17
 [Fc]3 [F=B]2 [FB] | [Fc]2 [CFA] [CEA]2 [B,EG] | [A,F]6 | c4 z2 | c4 z2 | GA [CEB] [CEA]2 [CEG] | %23
[M:5/8] [FA]3 [FAc]2 |[M:1/8] z |[M:3/4] c3 c3 | d3 A3 | G2 z2 z2 | [Ec]4- [Ec]B | c4 z2 | c4 z2 | %31
 GA [CEB] [CEA]2 [CEG] |[M:5/8] [FA]3 [FAc]2 |[M:1/8] [FAc] |[M:3/4] d2 c B2 =B | %35
 c2 [CEB] [CFA]2 [CFA] | .[B,DG]2 [DB] [FA]2 [EG] |[M:5/8] F-F- F3 |] %38
V:2
 z3 z2 [F,A,F] | [F,A,F]2 [F,A,F] [F,B,F]2 [F,B,F] | .[F,A,F]3 [F,A,F]2 [F,A,F] | %3
 [F,DF]2 [F,DF] [F,CF]2 [F,B,F] |[M:5/8] [F,A,F]- [F,A,F]3 z |[M:1/8] [F,A,F] | %6
[M:3/4] [G,B,E]2 [G,B,E] [G,B,E]2 [G,B,E] | [A,F]3[K:bass] [A,C]2 [F,A,C] | %8
 [G,=B,]2 [F,G,B,] [E,G,B,]2 [D,G,B,] |[M:5/8] [G,B,]3 [B,E] z |[M:1/8] [C,B,] | %11
[M:3/4][K:treble] [F,A,F]2 [F,A,F] [F,B,F]2 [F,B,F] | F2 z [F,A,F]2 [F,F] | %13
 [A,EG]2 [A,EG] [A,DG]2 [A,EG] |[M:5/8][K:bass] [D,D]- [D,D]3 z |[M:1/8] [D,D] | %16
[M:3/4][K:treble] [B,DF]2 [B,DF] [B,F]2[K:bass] [B,,B,] | [F,A,]3 [D,_A,]2 [D,A,] | %18
 z z/[K:treble] B/[K:bass] C, C,2 C, | F,6 | F,2 [CF] C,2[K:treble] [CF] | %21
 G,2 [B,CEG][K:bass] C,2 [B,CEG] | [CE]-[A,CE] G, A,2 B, |[M:5/8] A,2 C C,2 |[M:1/8] C | %25
[M:3/4] F,2 [CF] C,2[K:treble] [CF] | D,2 [A,F][K:bass] F,2 [A,D] | %27
 [G,,F,]2 [G,,F,] [G,,F,]2 [G,,G,] | z2 z2 z E | F,2 [CF] C,2[K:treble] [CF] | %30
 G,2 [B,CEG][K:bass] C,2 [B,CEG] | [CE]-[A,CE] G, A,2 B, |[M:5/8] A,2 C C,2 |[M:1/8] C | %34
[M:3/4] D,2 [A,DF] G,,2 [G,DG] | C,2 G, F,2 F, | z A [B,,G,] [C,C]2 [C,B,] | %37
[M:5/8] [F,A,]-[F,A,]- [F,A,]3 |] %38
V:3
 x6 | x6 | x6 | x6 |[M:5/8] x5 |[M:1/8] x |[M:3/4] x6 | x3[K:bass] x3 | x6 |[M:5/8] C,- C,3 z | %10
[M:1/8] x |[M:3/4][K:treble] x6 | [F,A,]4 z2 | x6 |[M:5/8][K:bass] x5 |[M:1/8] x | %16
[M:3/4][K:treble] x5[K:bass] x | x6 | [C,A,]2[K:treble][K:bass] z2 z2 | x6 | x5[K:treble] x | %21
 x3[K:bass] x3 | .B,2 z2 z2 |[M:5/8] x5 |[M:1/8] x |[M:3/4] x5[K:treble] x | x3[K:bass] x3 | x6 | %28
 [C,G,]6 | x5[K:treble] x | x3[K:bass] x3 | .B,2 z2 z2 |[M:5/8] x5 |[M:1/8] x |[M:3/4] x6 | x6 | %36
 B,,2 z2 z2 |[M:5/8] x5 |] %38
V:4
 x6 | x6 | x6 | x6 |[M:5/8] x5 |[M:1/8] x |[M:3/4] x6 | x6 | x6 |[M:5/8] x5 |[M:1/8] x | %11
[M:3/4] x6 | x6 | x6 |[M:5/8] x5 |[M:1/8] x |[M:3/4] x6 | x6 | x6 | x6 | z2 A c2 A | z2 B c2 B | %22
 x6 |[M:5/8] x5 |[M:1/8] x |[M:3/4] z2 .A2 z A | z2 .A2 z F | B,->[B,^F] [B,G] [B,A]2 [F=B] | x6 | %29
 z2 A c2 A | z2 B c2 B | x6 |[M:5/8] x5 |[M:1/8] x |[M:3/4] x6 | x6 | x6 |[M:5/8] x5 |] %38

